X: 38389
T: Star Of Munster, The
R: jig
M: 6/8
K: Adorian
|:~c3 BAG|AGE GED|EAA ABd|eaa ged|
c3 BAG|AGE GED|EAA cde|1 dcA A3:|2 dcA Acd||
|:eaa bag|aba age|deg ~g3|gaa age|
eaa bag|aba age|deg age|1 dBG Acd:|2 dBG A3||

